assets/images/members/hidglobal/hidglobal.svg

<svg version="1.2" xmlns="http://www.w3.org/2000/svg" viewBox="0 0 75 31"><style>.a{fill:#003087}</style><path fill-rule="evenodd" class="a" d="m74.5 3.6v23.8c0 1.9-1.5 3.5-3.4 3.5h-67.2c-1.9 0-3.4-1.6-3.4-3.5v-23.8c0-1.9 1.5-3.4 3.4-3.4h67.2c1.9 0 3.5 1.5 3.4 3.4zm-45.4 19.8zm0 0v-15.7h-7.9v6.7h-5.3v-6.7h-7.9v15.7h7.9v-6.8h5.3v6.8zm12.2-15.7h-7.9v15.7h7.9c0 0 0-15.7 0-15.7zm16.9 15.8c4.5 0 8.6-3.4 8.6-7.9 0-4.5-4.1-7.9-8.6-7.9h-12.9v15.8h12.9zm-0.4-8.1c0 7-1.9 6.5-5.1 6.5v-13c2.9 0 5.1-0.6 5.1 6.5z"/></svg>

<svg xmlns="http://www.w3.org/2000/svg" viewBox="0 0 75 31"><path fill-rule="evenodd" d="M74.5 3.6v23.8c0 1.9-1.5 3.5-3.4 3.5H3.9C2 30.9.5 29.3.5 27.4V3.6C.5 1.7 2 .2 3.9.2h67.2c1.9 0 3.5 1.5 3.4 3.4M29.1 23.4V7.7h-7.9v6.7h-5.3V7.7H8v15.7h7.9v-6.8h5.3v6.8zM41.3 7.7h-7.9v15.7h7.9zm16.9 15.8c4.5 0 8.6-3.4 8.6-7.9s-4.1-7.9-8.6-7.9H45.3v15.8zm-.4-8.1c0 7-1.9 6.5-5.1 6.5v-13c2.9 0 5.1-.6 5.1 6.5" style="fill:#003087"/></svg>
